pages/zim/img/icon/marker.svg

<svg width="15" height="22" viewBox="0 0 15 22" fill="none" xmlns="http://www.w3.org/2000/svg">
<path d="M7.26857 21.4289C7.24714 21.4289 7.22571 21.4289 7.20429 21.4289C7.17 21.3626 7.14 21.2963 7.10143 21.2342C5.59286 18.7519 4.09286 16.2697 2.57571 13.7957C1.76571 12.4779 1.08 11.1021 0.552857 9.65999C0.325714 9.03425 0.18 8.38779 0 7.74961C0 7.34765 0 6.94568 0 6.54786C0.0214286 6.46912 0.0514286 6.38624 0.0642857 6.30751C0.595714 3.25753 2.36571 1.18553 5.42143 0.331873C8.49429 -0.525933 11.1857 0.298721 13.26 2.65665C14.76 4.35983 15.3557 6.36138 14.7814 8.59084C14.46 9.83818 13.8857 10.9944 13.1957 12.0842C11.2843 15.1052 9.34286 18.1137 7.41857 21.1264C7.35857 21.2176 7.32 21.3253 7.26857 21.4289ZM7.47429 2.90115C5.11286 2.89286 3.19286 4.74522 3.17571 7.04514C3.15857 9.32433 5.07857 11.2098 7.44429 11.2223C9.81429 11.2389 11.7557 9.36577 11.76 7.06171C11.76 4.77423 9.84 2.90943 7.47429 2.90115Z" fill="white"/>
</svg>

<svg width="15" height="22" fill="none" xmlns="http://www.w3.org/2000/svg"><path d="M7.269 21.429h-.065c-.034-.066-.064-.133-.103-.195-1.508-2.482-3.008-4.964-4.525-7.438A22.944 22.944 0 01.553 9.66C.326 9.034.18 8.388 0 7.75V6.548c.021-.079.051-.162.064-.24.532-3.05 2.302-5.122 5.357-5.976 3.073-.858 5.765-.033 7.839 2.325 1.5 1.703 2.096 3.704 1.521 5.934-.321 1.247-.895 2.403-1.585 3.493-1.912 3.021-3.853 6.03-5.777 9.042-.06.092-.099.2-.15.303zM7.474 2.9c-2.361-.008-4.281 1.844-4.298 4.144-.017 2.28 1.903 4.165 4.268 4.177 2.37.017 4.312-1.856 4.316-4.16 0-2.288-1.92-4.153-4.286-4.16z" fill="#fff"/></svg>
